X:1
T: Here's a Health to ane I lo'e dear
C:
R:Jig
Q:180
K:D
M:6/8
L:1/16
|:fe|d4A2 B3AF2|A6 A4fe|d4A2 B2g2f2|e6 e2f2e2|
d4A2 B3cd2|c2B2A2 d4AG|F3DF2 E3CE2|D6z4F2|
A3AA2 B2A2F2|A6 A4F2|A3AA2 B2g2f2|e6e4A2|
A3AA2 B2c2d2|c3BA2 d4AG|F3DF2 E3CE2|D6z4:|
